assets/img/SVG/Youtube.svg

<?xml version="1.0" encoding="UTF-8" standalone="no"?>
<svg width="23px" height="17px" viewBox="0 0 23 17" version="1.1" xmlns="http://www.w3.org/2000/svg" xmlns:xlink="http://www.w3.org/1999/xlink">
    <!-- Generator: Sketch 3.8.3 (29802) - http://www.bohemiancoding.com/sketch -->
    <title>Youtube</title>
    <desc>Created with Sketch.</desc>
    <defs>
        <polygon id="path-1" points="23 8.26714556 23 16.3555556 0 16.3555556 0 8.26714556 0 0.178735556 23 0.178735556"></polygon>
    </defs>
    <g id="Welcome" stroke="none" stroke-width="1" fill="none" fill-rule="evenodd">
        <g id="Upcoming-Events-Desktop-HD" transform="translate(-248.000000, -2690.000000)">
            <g id="Footer" transform="translate(0.000000, 2606.000000)">
                <g id="Youtube" transform="translate(248.000000, 84.000000)">
                    <g id="Page-1">
                        <g id="Group-4" transform="translate(0.000000, 0.076871)">
                            <mask id="mask-2" fill="white">
                                <use xlink:href="#path-1"></use>
                            </mask>
                            <g id="Clip-3"></g>
                            <path d="M9.12563333,11.2504244 L9.12461111,4.78819111 L15.3392111,8.03042444 L9.12563333,11.2504244 Z M22.7705111,3.66860222 C22.7705111,3.66860222 22.5456222,2.08364667 21.8558778,1.38546889 C20.9816222,0.469557778 20.0010556,0.465213333 19.5515333,0.411546667 C16.3330667,0.178735556 11.5051111,0.178735556 11.5051111,0.178735556 L11.4948889,0.178735556 C11.4948889,0.178735556 6.66718889,0.178735556 3.44846667,0.411546667 C2.99894444,0.465213333 2.01888889,0.469557778 1.14412222,1.38546889 C0.454377778,2.08364667 0.23,3.66860222 0.23,3.66860222 C0.23,3.66860222 0,5.52981333 0,7.39102444 L0,9.13621333 C0,10.9971689 0.23,12.85838 0.23,12.85838 C0.23,12.85838 0.454377778,14.4433356 1.14412222,15.1415133 C2.01888889,16.05768 3.16812222,16.0282911 3.68,16.12438 C5.52025556,16.3009689 11.5,16.3556578 11.5,16.3556578 C11.5,16.3556578 16.3330667,16.3482467 19.5515333,16.1156911 C20.0010556,16.0620244 20.9816222,16.05768 21.8558778,15.1415133 C22.5456222,14.4433356 22.7705111,12.85838 22.7705111,12.85838 C22.7705111,12.85838 23,10.9971689 23,9.13621333 L23,7.39102444 C23,5.52981333 22.7705111,3.66860222 22.7705111,3.66860222 L22.7705111,3.66860222 Z" id="Fill-2" fill="#FFFFFF" mask="url(#mask-2)"></path>
                        </g>
                    </g>
                </g>
            </g>
        </g>
    </g>
</svg>

<svg width="23" height="17" viewBox="0 0 23 17" xmlns="http://www.w3.org/2000/svg" xmlns:xlink="http://www.w3.org/1999/xlink"><title>Youtube</title><defs><path id="a" d="M23 8.267v8.089H0V.179h23z"/></defs><g transform="translate(0 .077)" fill="none" fill-rule="evenodd"><mask id="b" fill="#fff"><use xlink:href="#a"/></mask><path d="M9.126 11.25l-.001-6.462 6.214 3.242-6.213 3.22zM22.77 3.67s-.225-1.585-.915-2.284C20.982.47 20 .465 19.552.412 16.333.179 11.505.179 11.505.179h-.01s-4.828 0-8.047.233c-.45.053-1.43.058-2.304.973C.454 2.084.23 3.67.23 3.67S0 5.529 0 7.39v1.745c0 1.861.23 3.722.23 3.722s.224 1.585.914 2.284c.875.916 2.024.886 2.536.982 1.84.177 7.82.232 7.82.232s4.833-.008 8.052-.24c.45-.054 1.43-.058 2.304-.974.69-.699.915-2.284.915-2.284S23 10.998 23 9.136V7.391c0-1.861-.23-3.722-.23-3.722z" fill="#FFF" mask="url(#b)"/></g></svg>
